X: 12374
T: Famous Baravan, The
R: jig
M: 6/8
K: Dmajor
d2c dAB|d2c def|g2f gef|g2f gef|
aaa aed|c2e ecA|1 A2c ecA|dcd eAB:|2 Ace edc|d3 def||
g2f gdB|GBd gag|eff fed|dcd fed|
eee age|age age|1 aaa aed|cAd AeA:|2 aaa edc|d3 d3||

